dist/icons/svgs/folder-solid.svg

<svg xmlns="http://www.w3.org/2000/svg" width="24" height="24" fill="currentcolor" class="icon-folder-solid" viewBox="0 0 24 24">
  <path d="M4.5 20.75C3.09375 20.75 2 19.6562 2 18.25V5.75C2 4.38281 3.09375 3.25 4.5 3.25H9.5C10.2812 3.25 11.0234 3.64062 11.4922 4.26562L12.2344 5.28125C12.4688 5.59375 12.8203 5.75 13.25 5.75H19.5C20.8672 5.75 22 6.88281 22 8.25V18.25C22 19.6562 20.8672 20.75 19.5 20.75H4.5Z"/>
</svg>

<svg xmlns="http://www.w3.org/2000/svg" width="24" height="24" fill="currentColor" class="icon-folder-solid" viewBox="0 0 24 24">
  <path d="M4.5 20.75a2.47 2.47 0 0 1-2.5-2.5V5.75c0-1.367 1.094-2.5 2.5-2.5h5c.781 0 1.523.39 1.992 1.016l.742 1.015c.235.313.586.469 1.016.469h6.25c1.367 0 2.5 1.133 2.5 2.5v10c0 1.406-1.133 2.5-2.5 2.5z"/>
</svg>
